build/img/instruction/alarm-tablet.svg

<svg width="80" height="80" viewBox="0 0 80 80" fill="none" xmlns="http://www.w3.org/2000/svg">
<rect width="80" height="80" fill="#68B738"/>
<ellipse cx="45.2042" cy="34.3297" rx="1.0873" ry="1.08512" fill="white"/>
<ellipse cx="34.3311" cy="34.3297" rx="1.08731" ry="1.08512" fill="white"/>
<ellipse cx="34.3311" cy="47.3512" rx="1.08731" ry="1.08512" fill="white"/>
<ellipse cx="39.7677" cy="49.5214" rx="1.0873" ry="1.08512" fill="white"/>
<ellipse cx="31.0692" cy="40.7748" rx="1.08731" ry="1.08512" fill="white"/>
<ellipse cx="48.4661" cy="40.7748" rx="1.0873" ry="1.08512" fill="white"/>
<ellipse cx="45.2042" cy="47.3512" rx="1.0873" ry="1.08512" fill="white"/>
<mask id="path-9-inside-1_2403_812" fill="white">
<path fill-rule="evenodd" clip-rule="evenodd" d="M44.9215 52.0581C45.3298 51.8622 45.8226 51.9298 46.1385 52.2542L47.9644 54.1292C48.2319 54.4039 48.6734 54.4039 48.941 54.1292C49.1987 53.8645 49.1987 53.4427 48.941 53.1781L47.5843 51.7849C47.1584 51.3475 47.2228 50.6356 47.682 50.2333C50.3238 47.9195 52 44.4688 52 40.6145C52 33.6477 46.5235 28 39.7678 28C33.0122 28 27.5356 33.6477 27.5356 40.6145C27.5356 44.4288 29.1773 47.8477 31.7717 50.1608C32.2244 50.5644 32.2849 51.2708 31.8617 51.7054L30.4276 53.1781C30.1698 53.4427 30.1698 53.8645 30.4276 54.1291C30.6951 54.4039 31.1366 54.4039 31.4042 54.1292L33.2838 52.199C33.6025 51.8718 34.1004 51.8061 34.5102 52.0076C36.103 52.7907 37.8858 53.229 39.7678 53.229C41.609 53.229 43.3553 52.8095 44.9215 52.0581ZM39.7678 51.8274C45.7728 51.8274 50.6409 46.8072 50.6409 40.6145C50.6409 34.4218 45.7728 29.4016 39.7678 29.4016C33.7628 29.4016 28.8948 34.4218 28.8948 40.6145C28.8948 46.8072 33.7628 51.8274 39.7678 51.8274ZM39.0083 40.298V36.5001V32.9409C39.0083 32.5094 39.3581 32.1596 39.7895 32.1596C40.221 32.1596 40.5708 32.5094 40.5708 32.9409V36.5001V40.298V40.8406V41.1226C40.5708 41.5661 40.2113 41.9257 39.7677 41.9257C39.3483 41.9257 39.0083 41.5857 39.0083 41.1663V40.8406V40.298Z"/>
</mask>
<path fill-rule="evenodd" clip-rule="evenodd" d="M44.9215 52.0581C45.3298 51.8622 45.8226 51.9298 46.1385 52.2542L47.9644 54.1292C48.2319 54.4039 48.6734 54.4039 48.941 54.1292C49.1987 53.8645 49.1987 53.4427 48.941 53.1781L47.5843 51.7849C47.1584 51.3475 47.2228 50.6356 47.682 50.2333C50.3238 47.9195 52 44.4688 52 40.6145C52 33.6477 46.5235 28 39.7678 28C33.0122 28 27.5356 33.6477 27.5356 40.6145C27.5356 44.4288 29.1773 47.8477 31.7717 50.1608C32.2244 50.5644 32.2849 51.2708 31.8617 51.7054L30.4276 53.1781C30.1698 53.4427 30.1698 53.8645 30.4276 54.1291C30.6951 54.4039 31.1366 54.4039 31.4042 54.1292L33.2838 52.199C33.6025 51.8718 34.1004 51.8061 34.5102 52.0076C36.103 52.7907 37.8858 53.229 39.7678 53.229C41.609 53.229 43.3553 52.8095 44.9215 52.0581ZM39.7678 51.8274C45.7728 51.8274 50.6409 46.8072 50.6409 40.6145C50.6409 34.4218 45.7728 29.4016 39.7678 29.4016C33.7628 29.4016 28.8948 34.4218 28.8948 40.6145C28.8948 46.8072 33.7628 51.8274 39.7678 51.8274ZM39.0083 40.298V36.5001V32.9409C39.0083 32.5094 39.3581 32.1596 39.7895 32.1596C40.221 32.1596 40.5708 32.5094 40.5708 32.9409V36.5001V40.298V40.8406V41.1226C40.5708 41.5661 40.2113 41.9257 39.7677 41.9257C39.3483 41.9257 39.0083 41.5857 39.0083 41.1663V40.8406V40.298Z" fill="white"/>
<path d="M33.2838 52.199L36.1495 54.9896L33.2838 52.199ZM34.5102 52.0076L36.275 48.418L34.5102 52.0076ZM31.4042 54.1292L28.5385 51.3385L31.4042 54.1292ZM30.4276 53.1781L33.2932 55.9687L30.4276 53.1781ZM47.5843 51.7849L44.7186 54.5756L47.5843 51.7849ZM47.682 50.2333L45.0465 47.2243L47.682 50.2333ZM31.7717 50.1608L29.1097 53.1464L31.7717 50.1608ZM31.8617 51.7054L28.9961 48.9147L31.8617 51.7054ZM48.941 53.1781L51.8067 50.3874L48.941 53.1781ZM47.9644 54.1292L50.8301 51.3385L47.9644 54.1292ZM46.1385 52.2542L43.2728 55.0449L46.1385 52.2542ZM44.9215 52.0581L43.1913 48.4516L44.9215 52.0581ZM43.2728 55.0449L45.0987 56.9198L50.8301 51.3385L49.0042 49.4636L43.2728 55.0449ZM51.8067 50.3874L50.45 48.9942L44.7186 54.5756L46.0753 55.9688L51.8067 50.3874ZM50.3175 53.2423C53.8075 50.1855 56 45.6466 56 40.6145H48C48 43.2911 46.8401 45.6534 45.0465 47.2243L50.3175 53.2423ZM56 40.6145C56 31.5555 48.8478 24 39.7678 24V32C44.1992 32 48 35.7399 48 40.6145H56ZM39.7678 24C30.6879 24 23.5356 31.5555 23.5356 40.6145H31.5356C31.5356 35.7399 35.3365 32 39.7678 32V24ZM23.5356 40.6145C23.5356 45.5943 25.683 50.0912 29.1097 53.1464L34.4336 47.1752C32.6716 45.6042 31.5356 43.2633 31.5356 40.6145H23.5356ZM28.9961 48.9147L27.5619 50.3874L33.2932 55.9687L34.7274 54.496L28.9961 48.9147ZM34.2699 56.9198L36.1495 54.9896L30.4181 49.4083L28.5385 51.3385L34.2699 56.9198ZM32.7454 55.5972C34.8722 56.6429 37.2573 57.229 39.7678 57.229V49.229C38.5143 49.229 37.3337 48.9385 36.275 48.418L32.7454 55.5972ZM39.7678 57.229C42.2236 57.229 44.5598 56.6681 46.6517 55.6645L43.1913 48.4516C42.1508 48.9508 40.9944 49.229 39.7678 49.229V57.229ZM39.7678 55.8274C48.0971 55.8274 54.6409 48.8994 54.6409 40.6145H46.6409C46.6409 44.715 43.4485 47.8274 39.7678 47.8274V55.8274ZM54.6409 40.6145C54.6409 32.3296 48.0971 25.4016 39.7678 25.4016V33.4016C43.4485 33.4016 46.6409 36.514 46.6409 40.6145H54.6409ZM39.7678 25.4016C31.4385 25.4016 24.8948 32.3296 24.8948 40.6145H32.8948C32.8948 36.514 36.0871 33.4016 39.7678 33.4016V25.4016ZM24.8948 40.6145C24.8948 48.8994 31.4385 55.8274 39.7678 55.8274V47.8274C36.0871 47.8274 32.8948 44.715 32.8948 40.6145H24.8948ZM36.5708 40.298V40.8406H44.5708V40.298H36.5708ZM36.5708 40.8406V41.1226H44.5708V40.8406H36.5708ZM43.0083 41.1663V40.8406H35.0083V41.1663H43.0083ZM43.0083 40.8406V40.298H35.0083V40.8406H43.0083ZM43.0083 40.298V36.5001H35.0083V40.298H43.0083ZM43.0083 36.5001V32.9409H35.0083V36.5001H43.0083ZM36.5708 32.9409V36.5001H44.5708V32.9409H36.5708ZM36.5708 36.5001V40.298H44.5708V36.5001H36.5708ZM39.7895 28.1596C37.1489 28.1596 35.0083 30.3003 35.0083 32.9409H43.0083C43.0083 34.7186 41.5672 36.1596 39.7895 36.1596V28.1596ZM36.5708 41.1226C36.5708 39.357 38.0021 37.9257 39.7677 37.9257V45.9257C42.4204 45.9257 44.5708 43.7753 44.5708 41.1226H36.5708ZM36.1495 54.9896C35.1569 56.009 33.7521 56.0922 32.7454 55.5972L36.275 48.418C34.4487 47.52 32.048 47.7346 30.4181 49.4083L36.1495 54.9896ZM27.5619 56.9198C29.3997 58.807 32.4321 58.807 34.2699 56.9198L28.5385 51.3385C29.8412 50.0008 31.9906 50.0008 33.2933 51.3385L27.5619 56.9198ZM27.5619 50.3874C25.7917 52.2051 25.7917 55.1021 27.5619 56.9198L33.2933 51.3385C34.548 52.6269 34.5479 54.6803 33.2932 55.9687L27.5619 50.3874ZM50.45 48.9942C51.7927 50.3731 51.394 52.2994 50.3175 53.2423L45.0465 47.2243C43.0515 48.9717 42.524 52.3219 44.7186 54.5756L50.45 48.9942ZM39.7895 36.1596C38.0119 36.1596 36.5708 34.7186 36.5708 32.9409H44.5708C44.5708 30.3003 42.4302 28.1596 39.7895 28.1596V36.1596ZM29.1097 53.1464C28.0463 52.1983 27.6626 50.2839 28.9961 48.9147L34.7274 54.496C36.9071 52.2577 36.4025 48.9306 34.4336 47.1752L29.1097 53.1464ZM51.8067 56.9198C53.5768 55.1021 53.5768 52.2051 51.8067 50.3874L46.0753 55.9688C44.8206 54.6803 44.8206 52.6269 46.0753 51.3385L51.8067 56.9198ZM45.0987 56.9198C46.9365 58.807 49.9689 58.807 51.8067 56.9198L46.0753 51.3385C47.378 50.0008 49.5274 50.0008 50.8301 51.3385L45.0987 56.9198ZM39.7677 37.9257C41.5574 37.9257 43.0083 39.3765 43.0083 41.1663H35.0083C35.0083 43.7948 37.1391 45.9257 39.7677 45.9257V37.9257ZM49.0042 49.4636C47.3881 47.804 45.0117 47.5783 43.1913 48.4516L46.6517 55.6645C45.648 56.1461 44.257 56.0555 43.2728 55.0449L49.0042 49.4636Z" fill="white" mask="url(#path-9-inside-1_2403_812)"/>
<rect x="39" y="29" width="4" height="1.5" transform="rotate(-90 39 29)" fill="white"/>
<rect x="32" y="25" width="15.5" height="1.5" rx="0.75" fill="white"/>
</svg>

<svg width="80" height="80" fill="none" xmlns="http://www.w3.org/2000/svg"><path fill="#68B738" d="M0 0h80v80H0z"/><ellipse cx="45.204" cy="34.33" rx="1.087" ry="1.085" fill="#fff"/><ellipse cx="34.331" cy="34.33" rx="1.087" ry="1.085" fill="#fff"/><ellipse cx="34.331" cy="47.351" rx="1.087" ry="1.085" fill="#fff"/><ellipse cx="39.768" cy="49.521" rx="1.087" ry="1.085" fill="#fff"/><ellipse cx="31.069" cy="40.775" rx="1.087" ry="1.085" fill="#fff"/><ellipse cx="48.466" cy="40.775" rx="1.087" ry="1.085" fill="#fff"/><ellipse cx="45.204" cy="47.351" rx="1.087" ry="1.085" fill="#fff"/><mask id="a" fill="#fff"><path fill-rule="evenodd" clip-rule="evenodd" d="M44.922 52.058a1.058 1.058 0 011.217.196l1.825 1.875a.682.682 0 00.977-.95l-1.357-1.394c-.426-.438-.361-1.15.098-1.552C50.324 47.92 52 44.47 52 40.615 52 33.648 46.523 28 39.768 28c-6.756 0-12.232 5.648-12.232 12.614 0 3.815 1.641 7.234 4.236 9.547.452.403.513 1.11.09 1.544l-1.434 1.473a.681.681 0 10.976.951l1.88-1.93a1.058 1.058 0 011.226-.191 11.878 11.878 0 005.258 1.221c1.841 0 3.587-.42 5.154-1.17zm-5.154-.23c6.005 0 10.873-5.02 10.873-11.214 0-6.192-4.868-11.212-10.873-11.212-6.005 0-10.873 5.02-10.873 11.212 0 6.193 4.868 11.213 10.873 11.213zm-.76-11.53V32.94a.781.781 0 111.563 0v8.183c0 .443-.36.803-.803.803a.76.76 0 01-.76-.76v-.868z"/></mask><path fill-rule="evenodd" clip-rule="evenodd" d="M44.922 52.058a1.058 1.058 0 011.217.196l1.825 1.875a.682.682 0 00.977-.95l-1.357-1.394c-.426-.438-.361-1.15.098-1.552C50.324 47.92 52 44.47 52 40.615 52 33.648 46.523 28 39.768 28c-6.756 0-12.232 5.648-12.232 12.614 0 3.815 1.641 7.234 4.236 9.547.452.403.513 1.11.09 1.544l-1.434 1.473a.681.681 0 10.976.951l1.88-1.93a1.058 1.058 0 011.226-.191 11.878 11.878 0 005.258 1.221c1.841 0 3.587-.42 5.154-1.17zm-5.154-.23c6.005 0 10.873-5.02 10.873-11.214 0-6.192-4.868-11.212-10.873-11.212-6.005 0-10.873 5.02-10.873 11.212 0 6.193 4.868 11.213 10.873 11.213zm-.76-11.53V32.94a.781.781 0 111.563 0v8.183c0 .443-.36.803-.803.803a.76.76 0 01-.76-.76v-.868z" fill="#fff"/><path d="M33.284 52.199l2.866 2.79-2.866-2.79zm1.226-.191l1.765-3.59-1.765 3.59zm-3.106 2.121l-2.866-2.79 2.866 2.79zm-.976-.95l2.865 2.79-2.865-2.79zm17.156-1.394l-2.865 2.79 2.865-2.79zm.098-1.552l-2.636-3.009 2.636 3.01zm-15.91-.072l-2.662 2.985 2.662-2.985zm.09 1.544l-2.866-2.79 2.866 2.79zm17.079 1.473l2.866-2.79-2.866 2.79zm-.977.951l2.866-2.79-2.866 2.79zm-1.825-1.875l-2.866 2.79 2.865-2.79zm-1.218-.196l-1.73-3.606 1.73 3.606zm-1.648 2.987l1.826 1.875 5.731-5.581-1.826-1.875-5.731 5.58zm8.534-4.658l-1.357-1.393-5.731 5.582 1.356 1.393 5.732-5.582zm-1.49 2.855C53.808 50.186 56 45.647 56 40.615h-8c0 2.676-1.16 5.038-2.953 6.61l5.27 6.017zM56 40.615C56 31.554 48.848 24 39.768 24v8C44.199 32 48 35.74 48 40.614h8zM39.768 24c-9.08 0-16.232 7.555-16.232 16.614h8c0-4.874 3.8-8.614 8.232-8.614v-8zM23.536 40.614c0 4.98 2.147 9.477 5.574 12.532l5.324-5.97c-1.762-1.572-2.898-3.913-2.898-6.562h-8zm5.46 8.3l-1.434 1.473 5.731 5.582 1.434-1.473-5.73-5.581zm5.274 8.006l1.88-1.93-5.732-5.582-1.88 1.93 5.732 5.582zm-1.525-1.323a15.878 15.878 0 007.023 1.632v-8a7.879 7.879 0 01-3.493-.811l-3.53 7.18zm7.023 1.632c2.456 0 4.792-.56 6.884-1.565l-3.46-7.212a7.886 7.886 0 01-3.424.777v8zm0-1.402c8.33 0 14.873-6.928 14.873-15.212h-8c0 4.1-3.192 7.212-6.873 7.212v8zM54.64 40.615c0-8.285-6.544-15.213-14.873-15.213v8c3.68 0 6.873 3.112 6.873 7.212h8zM39.768 25.401c-8.33 0-14.873 6.928-14.873 15.212h8c0-4.1 3.192-7.212 6.873-7.212v-8zM24.895 40.614c0 8.285 6.544 15.213 14.873 15.213v-8c-3.68 0-6.873-3.112-6.873-7.212h-8zm11.676-.316v.543h8v-.543h-8zm0 .543v.282h8v-.282h-8zm6.437.325v-.325h-8v.325h8zm0-.325v-.543h-8v.543h8zm0-.543V36.5h-8v3.798h8zm0-3.798v-3.56h-8v3.56h8zm-6.437-3.56v3.56h8v-3.56h-8zm0 3.56v3.798h8V36.5h-8zm3.218-8.34a4.781 4.781 0 00-4.78 4.78h8a3.219 3.219 0 01-3.22 3.22v-8zm-3.218 12.963a3.197 3.197 0 013.197-3.197v8a4.803 4.803 0 004.803-4.803h-8zM36.15 54.99a2.943 2.943 0 01-3.405.607l3.53-7.179c-1.826-.898-4.227-.683-5.857.99l5.732 5.582zm-8.588 1.93a4.682 4.682 0 006.708 0l-5.732-5.581a3.318 3.318 0 014.755 0l-5.731 5.58zm0-6.533a4.681 4.681 0 000 6.533l5.731-5.581a3.318 3.318 0 010 4.63l-5.731-5.582zm22.888-1.393c1.343 1.38.944 3.305-.133 4.248l-5.27-6.018c-1.995 1.748-2.523 5.098-.328 7.352l5.731-5.582zM39.79 36.16a3.219 3.219 0 01-3.22-3.22h8a4.78 4.78 0 00-4.78-4.78v8zM29.11 53.146c-1.064-.948-1.447-2.862-.114-4.231l5.731 5.581c2.18-2.238 1.676-5.565-.293-7.32l-5.324 5.97zm22.697 3.774a4.682 4.682 0 000-6.533l-5.732 5.582a3.318 3.318 0 010-4.63l5.732 5.58zm-6.708 0a4.682 4.682 0 006.708 0l-5.732-5.581a3.318 3.318 0 014.755 0l-5.731 5.58zm-5.331-18.994a3.24 3.24 0 013.24 3.24h-8a4.76 4.76 0 004.76 4.76v-8zm9.236 11.538c-1.616-1.66-3.992-1.886-5.813-1.012l3.46 7.212a2.943 2.943 0 01-3.378-.62l5.731-5.58z" fill="#fff" mask="url(#a)"/><path fill="#fff" d="M39 29v-4h1.5v4z"/><rect x="32" y="25" width="15.5" height="1.5" rx=".75" fill="#fff"/></svg>
